_includes/svg/website.svg

<svg viewBox="0 0 29 29" xmlns="http://www.w3.org/2000/svg"><path d="M14.624.028C6.813.028.457 6.383.457 14.195c0 7.812 6.356 14.167 14.167 14.167 7.812 0 14.168-6.354 14.168-14.167 0-7.812-6.356-14.167-14.168-14.167zm12.943 14.167c0 .248-.022.49-.037.735-.091-.23-.229-.53-.262-.659-.048-.196-.341-.879-.341-.879s-.293-.39-.488-.488c-.194-.098-.341-.342-.683-.536-.342-.196-.487-.293-.779-.293-.294 0-.585-.391-.928-.586-.342-.194-.39-.097-.39-.097s.39.585.39.731c0 .146.438.39.879.292 0 0 .292.537.438.683.146.146-.049.293-.341.488-.293.194-.244.146-.392.292-.146.146-.633.392-.78.488-.146.097-.731.39-1.023.097-.143-.141-.099-.438-.195-.634-.098-.195-1.122-1.707-1.61-2.389-.085-.12-.293-.49-.438-.585-.146-.099.342-.099.342-.099s0-.342-.049-.585c-.05-.244.049-.585.049-.585s-.488.292-.636.39c-.145.098-.292-.194-.486-.439-.195-.243-.391-.537-.439-.781-.049-.243.244-.341.244-.341l.438-.243s.537-.097.879-.049c.341.049.877.098.877.098s.146-.342-.049-.488c-.194-.146-.635-.39-.83-.341-.194.048.097-.244.34-.439l-.54-.098s-.491.244-.638.293c-.146.048-.4.146-.596.39-.194.244.078.585-.117.683a3.045 3.045 0 0 1-.473.194c-.146.049-.61 0-.61 0-.504 0-.181.46-.05.623l-.39-.476-.289-.682s-.416-.292-.611-.389c-.195-.098-.796-.439-.796-.439l.042.439.565.572.05.013.294.39-.649.049v-.386c-.612-.148-.452-.3-.521-.347-.145-.097-.484-.342-.484-.342s-.574.098-.721.147c-.147.049-.188.195-.479.292a.919.919 0 0 0-.523.39c-.097.146-.415.585-.608.78-.196.196-.558.146-.704.146-.147 0-.851-.195-.851-.195v-.827s.095-.464.047-.61l.427-.072.713-.147.209-.147.3-.39s-.337-.244-.094-.585c.117-.164.538-.195.733-.341.194-.146.489-.244.489-.244s.342-.292.683-.634c0 0 .244-.147.536-.245 0 0 .83.732.977.732.147 0 .683-.341.683-.341s.146-.438.098-.585c-.049-.146-.293-.634-.293-.634s-.146.244-.292.439-.244.439-.244.439-.683-.047-.731-.193c-.05-.147-.146-.388-.196-.533-.047-.147-.438-.142-.729-.044-.294.098.047-.526.047-.526s.294-.368.488-.368.635-.25.828-.298c.196-.049.783-.272 1.025-.272.244 0 .537.105.684.105h.731l1.023-.082s.879.325.585.521c0 0 .343.211.489.357.137.138.491-.127.694-.24 3.649 2.29 6.089 6.341 6.089 10.96zM4.296 6.563c0 .195-.266.242 0 .732.34.634.048.927.048.927s-.83.585-.976.683c-.146.098-.536.634-.293.487.244-.146.536-.292.293.098-.244.391-.683 1.024-.78 1.269-.097.245-.585.829-.585 1.122 0 .293-.195.879-.146 1.123.033.17-.075.671-.16.877A12.84 12.84 0 0 1 4.21 6.545c.05.005.086.018.086.018zm1.567-1.87A12.965 12.965 0 0 1 9.996 2.12c-.152.195-.336.395-.336.395s-.341-.001-.976.683c-.633.683-.487.488-.633.682-.146.194-.098.244-.44.489-.34.243-.487.536-.487.536l-.537.195-.438-.195s-.392.147-.343-.049c.014-.052.035-.106.057-.163zm5.846 1.138l-.194-.292.194-.439.47.188v-.871l.449-.243.373.536.574.635-.381.292-1.016.195v-.517l-.469.516zm6.342 4.585c.114-.09.487.146.487.146s1.219.244 1.414.39c.196.147.537.245.635.392.098.146.438.585.486.731.05.146.294.684.343.878.049.195.195.683.341.927.146.245.976 1.317 1.268 1.805l.88-.146s-.099.438-.196.585c-.097.146-.39.536-.536.731-.147.195-.341.488-.634.731-.292.243-.294.487-.439.683-.146.195-.342.634-.342.634s.098.976.146 1.171c.048.195-.341.731-.341.731l-.44.44-.588.779.048.731s-.444.343-.689.537c-.242.194-.204.341-.399.537-.194.194-.957.536-1.152.585-.195.049-1.271.195-1.271.195v-.438l-.022-.488s-.148-.585-.295-.78c-.147-.195-.083-.489-.327-.732-.244-.244-.334-.438-.383-.586-.049-.146.053-.584.053-.584s.197-.537.294-.732c.098-.195.001-.487-.097-.683-.098-.196-.145-.684-.145-.829 0-.146-.392-.391-.538-.537-.146-.146-.097-.342-.097-.535 0-.197-.146-.635-.098-.977.049-.341-.438-.098-.731 0s-.487-.098-.487-.391c0-.293-.536-.048-.878.146-.343.195-.732.195-1.124.342-.389.146-.583-.146-.583-.146s-.343-.292-.585-.439c-.245-.146-.489-.438-.685-.682-.194-.245-.683-.977-.73-1.268-.049-.294 0-.49 0-.831 0-.341 0-.536.048-.78.049-.244.195-.537.342-.781.146-.244.683-.536.828-.634.146-.097.488-.389.488-.585 0-.195.196-.292.292-.488.099-.195.44-.682.879-.487 0 0 .389-.048.535-.097.146-.049.536-.194.729-.292.195-.098.681-.144.681-.144s.384.153.53.153c.146 0 .622-.085.622-.085s.22.707.22.854c0 .147.146.292.391.39.241.099 1.364.344 1.852-.047zm5.609 9.561c0 .146-.049.537-.098.732-.051.195-.147.537-.195.73-.049.196-.293.586-.438.684-.146.098-.391.391-.536.439-.146.049-.245-.342-.196-.537.05-.195.293-.731.293-.731s.049-.292.097-.488c.05-.194.635-.438.635-.438l.391-.732c-.002-.001.047.196.047.341zM2.015 17.071c.063.016.153.062.28.175.184.16.293.242.537.341.243.099.341.243.634.39.293.147.196.05.585.488.391.438.342.438.439.683.097.245.244.487.342.635.098.146.39.243.536.341.146.098.39.195.536.195.147 0 .586.439.83.487.244.05.244.538.244.538l-.244.682-.196.731.196.585s-.294.245-.487.245c-.18 0-.241.114-.438.06a12.931 12.931 0 0 1-3.794-6.576z" fill="#5E93C7" fill-rule="nonzero"/></svg>

<?xml version="1.0" encoding="UTF-8" standalone="no"?>
<svg width="29px" height="29px" viewBox="0 0 29 29" version="1.1" xmlns="http://www.w3.org/2000/svg" xmlns:xlink="http://www.w3.org/1999/xlink">
    <g id="Page-1" stroke="none" stroke-width="1" fill="none" fill-rule="evenodd">
        <g id="website" fill="#5E93C7" fill-rule="nonzero">
            <path d="M14.624,0.028 C6.813,0.028 0.457,6.383 0.457,14.195 C0.457,22.007 6.813,28.362 14.624,28.362 C22.436,28.362 28.792,22.008 28.792,14.195 C28.792,6.383 22.436,0.028 14.624,0.028 Z M27.567,14.195 C27.567,14.443 27.545,14.685 27.53,14.93 C27.439,14.7 27.301,14.4 27.268,14.271 C27.22,14.075 26.927,13.392 26.927,13.392 C26.927,13.392 26.634,13.002 26.439,12.904 C26.245,12.806 26.098,12.562 25.756,12.368 C25.414,12.172 25.269,12.075 24.977,12.075 C24.683,12.075 24.392,11.684 24.049,11.489 C23.707,11.295 23.659,11.392 23.659,11.392 C23.659,11.392 24.049,11.977 24.049,12.123 C24.049,12.269 24.487,12.513 24.928,12.415 C24.928,12.415 25.22,12.952 25.366,13.098 C25.512,13.244 25.317,13.391 25.025,13.586 C24.732,13.78 24.781,13.732 24.633,13.878 C24.487,14.024 24,14.27 23.853,14.366 C23.707,14.463 23.122,14.756 22.83,14.463 C22.687,14.322 22.731,14.025 22.635,13.829 C22.537,13.634 21.513,12.122 21.025,11.44 C20.94,11.32 20.732,10.95 20.587,10.855 C20.441,10.756 20.929,10.756 20.929,10.756 C20.929,10.756 20.929,10.414 20.88,10.171 C20.83,9.927 20.929,9.586 20.929,9.586 C20.929,9.586 20.441,9.878 20.293,9.976 C20.148,10.074 20.001,9.782 19.807,9.537 C19.612,9.294 19.416,9 19.368,8.756 C19.319,8.513 19.612,8.415 19.612,8.415 L20.05,8.172 C20.05,8.172 20.587,8.075 20.929,8.123 C21.27,8.172 21.806,8.221 21.806,8.221 C21.806,8.221 21.952,7.879 21.757,7.733 C21.563,7.587 21.122,7.343 20.927,7.392 C20.733,7.44 21.024,7.148 21.267,6.953 L20.727,6.855 C20.727,6.855 20.236,7.099 20.089,7.148 C19.943,7.196 19.689,7.294 19.493,7.538 C19.299,7.782 19.571,8.123 19.376,8.221 C19.182,8.319 19.05,8.367 18.903,8.415 C18.757,8.464 18.293,8.415 18.293,8.415 C17.789,8.415 18.112,8.875 18.243,9.038 L17.853,8.562 L17.564,7.88 C17.564,7.88 17.148,7.588 16.953,7.491 C16.758,7.393 16.157,7.052 16.157,7.052 L16.199,7.491 L16.764,8.063 L16.814,8.076 L17.108,8.466 L16.459,8.515 L16.459,8.129 C15.847,7.981 16.007,7.829 15.938,7.782 C15.793,7.685 15.454,7.44 15.454,7.44 C15.454,7.44 14.88,7.538 14.733,7.587 C14.586,7.636 14.545,7.782 14.254,7.879 C13.96,7.977 13.828,8.123 13.731,8.269 C13.634,8.415 13.316,8.854 13.123,9.049 C12.927,9.245 12.565,9.195 12.419,9.195 C12.272,9.195 11.568,9 11.568,9 L11.568,8.173 C11.568,8.173 11.663,7.709 11.615,7.563 L12.042,7.491 L12.755,7.344 L12.964,7.197 L13.264,6.807 C13.264,6.807 12.927,6.563 13.17,6.222 C13.287,6.058 13.708,6.027 13.903,5.881 C14.097,5.735 14.392,5.637 14.392,5.637 C14.392,5.637 14.734,5.345 15.075,5.003 C15.075,5.003 15.319,4.856 15.611,4.758 C15.611,4.758 16.441,5.49 16.588,5.49 C16.735,5.49 17.271,5.149 17.271,5.149 C17.271,5.149 17.417,4.711 17.369,4.564 C17.32,4.418 17.076,3.93 17.076,3.93 C17.076,3.93 16.93,4.174 16.784,4.369 C16.638,4.564 16.54,4.808 16.54,4.808 C16.54,4.808 15.857,4.761 15.809,4.615 C15.759,4.468 15.663,4.227 15.613,4.082 C15.566,3.935 15.175,3.94 14.884,4.038 C14.59,4.136 14.931,3.512 14.931,3.512 C14.931,3.512 15.225,3.144 15.419,3.144 C15.613,3.144 16.054,2.894 16.247,2.846 C16.443,2.797 17.03,2.574 17.272,2.574 C17.516,2.574 17.809,2.679 17.956,2.679 C18.103,2.679 18.687,2.679 18.687,2.679 L19.71,2.597 C19.71,2.597 20.589,2.922 20.295,3.118 C20.295,3.118 20.638,3.329 20.784,3.475 C20.921,3.613 21.275,3.348 21.478,3.235 C25.127,5.525 27.567,9.576 27.567,14.195 Z M4.296,6.563 C4.296,6.758 4.03,6.805 4.296,7.295 C4.636,7.929 4.344,8.222 4.344,8.222 C4.344,8.222 3.514,8.807 3.368,8.905 C3.222,9.003 2.832,9.539 3.075,9.392 C3.319,9.246 3.611,9.1 3.368,9.49 C3.124,9.881 2.685,10.514 2.588,10.759 C2.491,11.004 2.003,11.588 2.003,11.881 C2.003,12.174 1.808,12.76 1.857,13.004 C1.89,13.174 1.782,13.675 1.697,13.881 C1.763,11.139 2.686,8.612 4.21,6.545 C4.26,6.55 4.296,6.563 4.296,6.563 Z M5.863,4.693 C7.056,3.592 8.454,2.714 9.996,2.12 C9.844,2.315 9.66,2.515 9.66,2.515 C9.66,2.515 9.319,2.514 8.684,3.198 C8.051,3.881 8.197,3.686 8.051,3.88 C7.905,4.074 7.953,4.124 7.611,4.369 C7.271,4.612 7.124,4.905 7.124,4.905 L6.587,5.1 L6.149,4.905 C6.149,4.905 5.757,5.052 5.806,4.856 C5.82,4.804 5.841,4.75 5.863,4.693 Z M11.709,5.831 L11.515,5.539 L11.709,5.1 L12.179,5.288 L12.179,4.417 L12.628,4.174 L13.001,4.71 L13.575,5.345 L13.194,5.637 L12.178,5.832 L12.178,5.315 L11.709,5.831 Z M18.051,10.416 C18.165,10.326 18.538,10.562 18.538,10.562 C18.538,10.562 19.757,10.806 19.952,10.952 C20.148,11.099 20.489,11.197 20.587,11.344 C20.685,11.49 21.025,11.929 21.073,12.075 C21.123,12.221 21.367,12.759 21.416,12.953 C21.465,13.148 21.611,13.636 21.757,13.88 C21.903,14.125 22.733,15.197 23.025,15.685 L23.905,15.539 C23.905,15.539 23.806,15.977 23.709,16.124 C23.612,16.27 23.319,16.66 23.173,16.855 C23.026,17.05 22.832,17.343 22.539,17.586 C22.247,17.829 22.245,18.073 22.1,18.269 C21.954,18.464 21.758,18.903 21.758,18.903 C21.758,18.903 21.856,19.879 21.904,20.074 C21.952,20.269 21.563,20.805 21.563,20.805 L21.123,21.245 L20.535,22.024 L20.583,22.755 C20.583,22.755 20.139,23.098 19.894,23.292 C19.652,23.486 19.69,23.633 19.495,23.829 C19.301,24.023 18.538,24.365 18.343,24.414 C18.148,24.463 17.072,24.609 17.072,24.609 L17.072,24.171 L17.05,23.683 C17.05,23.683 16.902,23.098 16.755,22.903 C16.608,22.708 16.672,22.414 16.428,22.171 C16.184,21.927 16.094,21.733 16.045,21.585 C15.996,21.439 16.098,21.001 16.098,21.001 C16.098,21.001 16.295,20.464 16.392,20.269 C16.49,20.074 16.393,19.782 16.295,19.586 C16.197,19.39 16.15,18.902 16.15,18.757 C16.15,18.611 15.758,18.366 15.612,18.22 C15.466,18.074 15.515,17.878 15.515,17.685 C15.515,17.488 15.369,17.05 15.417,16.708 C15.466,16.367 14.979,16.61 14.686,16.708 C14.393,16.806 14.199,16.61 14.199,16.317 C14.199,16.024 13.663,16.269 13.321,16.463 C12.978,16.658 12.589,16.658 12.197,16.805 C11.808,16.951 11.614,16.659 11.614,16.659 C11.614,16.659 11.271,16.367 11.029,16.22 C10.784,16.074 10.54,15.782 10.344,15.538 C10.15,15.293 9.661,14.561 9.614,14.27 C9.565,13.976 9.614,13.78 9.614,13.439 C9.614,13.098 9.614,12.903 9.662,12.659 C9.711,12.415 9.857,12.122 10.004,11.878 C10.15,11.634 10.687,11.342 10.832,11.244 C10.978,11.147 11.32,10.855 11.32,10.659 C11.32,10.464 11.516,10.367 11.612,10.171 C11.711,9.976 12.052,9.489 12.491,9.684 C12.491,9.684 12.88,9.636 13.026,9.587 C13.172,9.538 13.562,9.393 13.755,9.295 C13.95,9.197 14.436,9.151 14.436,9.151 C14.436,9.151 14.82,9.304 14.966,9.304 C15.112,9.304 15.588,9.219 15.588,9.219 C15.588,9.219 15.808,9.926 15.808,10.073 C15.808,10.22 15.954,10.365 16.199,10.463 C16.44,10.562 17.563,10.807 18.051,10.416 Z M23.66,19.977 C23.66,20.123 23.611,20.514 23.562,20.709 C23.511,20.904 23.415,21.246 23.367,21.439 C23.318,21.635 23.074,22.025 22.929,22.123 C22.783,22.221 22.538,22.514 22.393,22.562 C22.247,22.611 22.148,22.22 22.197,22.025 C22.247,21.83 22.49,21.294 22.49,21.294 C22.49,21.294 22.539,21.002 22.587,20.806 C22.637,20.612 23.222,20.368 23.222,20.368 L23.613,19.636 C23.611,19.635 23.66,19.832 23.66,19.977 Z M2.015,17.071 C2.078,17.087 2.168,17.133 2.295,17.246 C2.479,17.406 2.588,17.488 2.832,17.587 C3.075,17.686 3.173,17.83 3.466,17.977 C3.759,18.124 3.662,18.027 4.051,18.465 C4.442,18.903 4.393,18.903 4.49,19.148 C4.587,19.393 4.734,19.635 4.832,19.783 C4.93,19.929 5.222,20.026 5.368,20.124 C5.514,20.222 5.758,20.319 5.904,20.319 C6.051,20.319 6.49,20.758 6.734,20.806 C6.978,20.856 6.978,21.344 6.978,21.344 L6.734,22.026 L6.538,22.757 L6.734,23.342 C6.734,23.342 6.44,23.587 6.247,23.587 C6.067,23.587 6.006,23.701 5.809,23.647 C3.949,21.91 2.6,19.638 2.015,17.071 Z" id="Shape"></path>
        </g>
    </g>
</svg>
